Newaita-dark/apps/16/com.github.freeeradicals.elements.svg

<svg height="16" viewBox="0 0 16 16" width="16" xmlns="http://www.w3.org/2000/svg" xmlns:xlink="http://www.w3.org/1999/xlink"><linearGradient id="a" gradientUnits="userSpaceOnUse" x1="7.93826" x2="7.93826" y1="14.0169685" y2="14.67849050002"><stop offset="0" stop-opacity=".27451"/><stop offset="1" stop-opacity="0"/></linearGradient><linearGradient id="b"><stop offset="0" stop-opacity=".313726"/><stop offset=".222222" stop-opacity=".27451"/><stop offset="1" stop-opacity="0"/></linearGradient><radialGradient id="c" cx="450.908936" cy="189.579361" gradientTransform="matrix(.00000009 -.0390662 -.0703192 -.00000005 26.065324 31.797666)" gradientUnits="userSpaceOnUse" r="21.166656" xlink:href="#b"/><radialGradient id="d" cx="450.908936" cy="189.579361" gradientTransform="matrix(-.00000009 .0390662 .0703192 .00000005 -10.188807 -3.763739)" gradientUnits="userSpaceOnUse" r="21.166656" xlink:href="#b"/><radialGradient id="e" cx="450.908936" cy="189.579361" gradientTransform="matrix(-.00000009 -.0390662 .0703192 -.00000005 -10.188807 31.797666)" gradientUnits="userSpaceOnUse" r="21.166656" xlink:href="#b"/><radialGradient id="f" cx="450.908936" cy="189.579361" gradientTransform="matrix(.00000009 .0390662 -.0703192 .00000005 26.065323 -3.76374)" gradientUnits="userSpaceOnUse" r="21.166656" xlink:href="#b"/><linearGradient id="g" gradientUnits="userSpaceOnUse" x1="5.29217449998" x2="5.29217449998" y1="14.0169675" y2="1.44805300003"><stop offset="0" stop-color="#42a5f5"/><stop offset="1" stop-color="#64b5f6"/></linearGradient><linearGradient id="h"><stop offset="0" stop-color="#bdbdbd"/><stop offset="1" stop-color="#e0e0e0"/></linearGradient><linearGradient id="i" gradientUnits="userSpaceOnUse" x1="5.2921728" x2="5.2921728" xlink:href="#h" y1="14.01696600048" y2="1.44805535241"/><linearGradient id="j" gradientUnits="userSpaceOnUse" x1="11.907393" x2="11.907393" xlink:href="#h" y1="6.40946640625" y2="2.1095745"/><path d="m2.976562 13.96875h9.921876v.734375h-9.921876zm0 0" fill="url(#a)"/><path d="m12.898438 14.015625h1.324218v-.660156h-1.324218zm0 0" fill="url(#c)"/><path d="m2.976562 14.015625h-1.324218v.664063h1.324218zm0 0" fill="url(#d)"/><path d="m2.976562 14.015625h-1.324218v-.660156h1.324218zm0 0" fill="url(#e)"/><path d="m12.898438 14.015625h1.324218v.664063h-1.324218zm0 0" fill="url(#f)"/><path d="m2.316406 1.449219h11.246094c.363281 0 .660156.296875.660156.660156v11.246094c0 .367187-.296875.660156-.660156.660156h-11.246094c-.367187 0-.664062-.292969-.664062-.660156v-11.246094c0-.363281.296875-.660156.664062-.660156zm0 0" fill="url(#g)"/><path d="m2.316406 1.449219c-.367187 0-.664062.292969-.664062.660156v.082031c0-.367187.296875-.660156.664062-.660156h11.246094c.363281 0 .660156.292969.660156.660156v-.082031c0-.367187-.296875-.660156-.660156-.660156zm0 0" fill="#e6e6e6" fill-opacity=".392157"/><path d="m2.316406 14.015625c-.367187 0-.664062-.292969-.664062-.660156v-.082031c0 .367187.296875.660156.664062.660156h11.246094c.363281 0 .660156-.292969.660156-.660156v.082031c0 .367187-.296875.660156-.660156.660156zm0 0" fill-opacity=".196078"/><path d="m74.117922-168.629428h359.840637c11.62389 0 21.122983 9.499093 21.122983 21.122983v359.840637c0 11.748878-9.499093 21.122982-21.122983 21.122982h-359.840637c-11.748878 0-21.247971-9.374104-21.247971-21.122982v-359.840637c0-11.62389 9.499093-21.122983 21.247971-21.122983zm0 0" fill="none" stroke="#212121" stroke-linecap="round" stroke-width="3" transform="matrix(.031253 0 0 .031253 0 6.719392)"/><path d="m3.308594 7.070312c-.183594 0-.332032.148438-.332032.332032v4.960937c0 .183594.148438.332031.332032.332031h.660156c.183594 0 .332031-.148437.332031-.332031v-1.984375h2.3125v1.984375c0 .183594.148438.332031.332031.332031h.664063c.179687 0 .328125-.148437.328125-.332031v-4.960937c0-.183594-.148438-.332032-.328125-.332032h-.664063c-.183593 0-.332031.148438-.332031.332032v1.984375h-2.3125v-1.984375c0-.183594-.148437-.332032-.332031-.332032zm0 0" fill="url(#i)"/><path d="m3.308594 7.070312c-.183594 0-.332032.148438-.332032.332032v.164062c0-.183594.148438-.328125.332032-.328125h.660156c.183594 0 .332031.144531.332031.328125v-.164062c0-.183594-.148437-.332032-.332031-.332032zm3.636718 0c-.183593 0-.332031.148438-.332031.332032v.164062c0-.183594.148438-.328125.332031-.328125h.664063c.179687 0 .328125.144531.328125.328125v-.164062c0-.183594-.148438-.332032-.328125-.332032zm-2.644531 2.316407v.164062h2.3125v-.164062zm0 0" fill="#fff"/><path d="m4.300781 10.378906v.332032h2.3125v-.332032zm-1.324219 1.984375v.332031c0 .183594.148438.328126.332032.328126h.660156c.183594 0 .332031-.144532.332031-.328126v-.332031c0 .183594-.148437.332031-.332031.332031h-.660156c-.183594 0-.332032-.148437-.332032-.332031zm3.636719 0v.332031c0 .183594.148438.328126.332031.328126h.664063c.179687 0 .328125-.144532.328125-.328126v-.332031c0 .183594-.148438.332031-.328125.332031h-.664063c-.183593 0-.332031-.148437-.332031-.332031zm0 0" fill-opacity=".235294"/><path d="m400.119292 855.036503c-22.202605 0-40.153648 17.951043-40.153648 40.153648v599.94274c0 22.202605 17.951043 40.153648 40.153648 40.153648h79.8349c22.202605 0 40.153648-17.951043 40.153648-40.153648v-239.977096h279.658348v239.977096c0 22.202605 17.951042 40.153648 40.153648 40.153648h80.307296c21.730209 0 39.681252-17.951043 39.681252-40.153648v-599.94274c0-22.202605-17.951043-40.153648-39.681252-40.153648h-80.307296c-22.202606 0-40.153648 17.951043-40.153648 40.153648v239.977096h-279.658348v-239.977096c0-22.202605-17.951043-40.153648-40.153648-40.153648zm0 0" fill="none" stroke="#212121" stroke-linecap="round" stroke-linejoin="round" stroke-width="11.338583" transform="scale(.00826902)"/><path d="m12.230469 2.394531c-.097657.003907-.1875.042969-.257813.113281l-.992187.992188c-.097657.09375-.136719.230469-.101563.363281.035156.128907.136719.230469.269532.265625.128906.035156.269531-.003906.363281-.101562l.234375-.234375-.175782 1.578125h-.65625c-.132812 0-.261718.070312-.328124.1875-.066407.117187-.066407.261718 0 .378906.066406.117188.195312.1875.328124.183594h1.984376c.207031 0 .371093-.167969.371093-.375 0-.203125-.164062-.371094-.371093-.375h-.570313l.28125-2.558594c.011719-.105469-.019531-.214844-.09375-.292969-.074219-.082031-.175781-.125-.285156-.125zm0 0" fill="url(#j)"/><path d="m12.230469 2.394531c-.097657.003907-.1875.042969-.257813.113281l-.992187.992188c-.089844.085938-.128907.207031-.105469.328125.011719-.074219.050781-.148437.105469-.203125l.992187-.992188c.070313-.070312.160156-.109374.257813-.109374.1875-.003907.347656.128906.378906.316406v-.027344c.011719-.105469-.019531-.214844-.09375-.292969-.074219-.082031-.175781-.125-.285156-.125zm-.484375 1.566407-.019532.019531-.15625 1.390625h-.65625c-.109374 0-.214843.046875-.289062.132812-.070312.085938-.101562.195313-.085938.308594.03125-.183594.191407-.316406.375-.3125h.65625l.15625-1.390625.003907-.007813zm.597656 1.410156-.015625.171875h.011719l.003906-.042969h.554688c.179687.003906.332031.132812.363281.308594.019531-.105469-.011719-.214844-.078125-.300782-.070313-.082031-.175782-.132812-.285156-.136718zm0 0" fill="#fff"/><path d="m12.601562 2.890625-.273437 2.480469h.023437l.257813-2.347656c.007813-.042969.003906-.089844-.007813-.132813zm-.855468.902344-.234375.234375c-.09375.097656-.230469.136718-.359375.101562-.128906-.03125-.234375-.128906-.269532-.257812-.046874.164062.023438.34375.171876.429687.148437.085938.335937.0625.457031-.0625l.210937-.210937zm-1.195313 2.058593c-.035156.113282-.011719.238282.058594.332032.074219.097656.1875.152344.304687.148437h1.984376c.117187 0 .226562-.058593.296874-.152343.070313-.09375.089844-.214844.058594-.328126-.046875.160157-.191406.269532-.355468.269532h-1.984376c-.167968.003906-.316406-.105469-.363281-.269532zm0 0" fill-opacity=".235294"/><path d="m391.337629-138.382317c-3.124701.124988-5.999427 1.374869-8.249212 3.624654l-31.746968 31.746969c-3.124702 2.999713-4.374583 7.374295-3.24969 11.62389 1.124892 4.124606 4.374582 7.374295 8.624176 8.499188 4.124606 1.124892 8.624177-.124988 11.62389-3.24969l7.499284-7.499284-5.624463 50.495178h-20.997995c-4.249594 0-8.3742 2.249785-10.498997 5.999427s-2.124797 8.374201 0 12.123843 6.249403 5.999427 10.498997 5.874439h63.493937c6.624368 0 11.873866-5.374487 11.873866-11.998855 0-6.499379-5.249498-11.873866-11.873866-11.998854h-18.248257l8.99914-81.867182c.374965-3.374677-.62494-6.874343-2.999713-9.374105-2.374773-2.624749-5.624463-3.999618-9.124129-3.999618zm0 0" fill="none" stroke="#212121" stroke-linecap="round" stroke-linejoin="round" stroke-width="3" transform="matrix(.031253 0 0 .031253 0 6.719392)"/></svg>

<?xml version="1.0" encoding="UTF-8"?>
<svg xmlns="http://www.w3.org/2000/svg" xmlns:xlink="http://www.w3.org/1999/xlink" width="16px" height="16px" viewBox="0 0 16 16" version="1.1">
<defs>
<linearGradient id="linear0" gradientUnits="userSpaceOnUse" x1="254" y1="233.5" x2="254" y2="254.666672" gradientTransform="matrix(0.031253,0,0,0.031253,-0.00000190753,6.719393)">
<stop offset="0" style="stop-color:rgb(0%,0%,0%);stop-opacity:0.27451;"/>
<stop offset="1" style="stop-color:rgb(0%,0%,0%);stop-opacity:0;"/>
</linearGradient>
<radialGradient id="radial0" gradientUnits="userSpaceOnUse" cx="450.908936" cy="189.579361" fx="450.908936" fy="189.579361" r="21.166656" gradientTransform="matrix(0.0000000870852,-0.0390662,-0.0703192,-0.0000000507693,26.065324,31.797666)">
<stop offset="0" style="stop-color:rgb(0%,0%,0%);stop-opacity:0.313726;"/>
<stop offset="0.222222" style="stop-color:rgb(0%,0%,0%);stop-opacity:0.27451;"/>
<stop offset="1" style="stop-color:rgb(0%,0%,0%);stop-opacity:0;"/>
</radialGradient>
<radialGradient id="radial1" gradientUnits="userSpaceOnUse" cx="450.908936" cy="189.579361" fx="450.908936" fy="189.579361" r="21.166656" gradientTransform="matrix(-0.0000000870852,0.0390662,0.0703192,0.0000000507693,-10.188807,-3.763739)">
<stop offset="0" style="stop-color:rgb(0%,0%,0%);stop-opacity:0.313726;"/>
<stop offset="0.222222" style="stop-color:rgb(0%,0%,0%);stop-opacity:0.27451;"/>
<stop offset="1" style="stop-color:rgb(0%,0%,0%);stop-opacity:0;"/>
</radialGradient>
<radialGradient id="radial2" gradientUnits="userSpaceOnUse" cx="450.908936" cy="189.579361" fx="450.908936" fy="189.579361" r="21.166656" gradientTransform="matrix(-0.0000000870852,-0.0390662,0.0703192,-0.0000000507693,-10.188807,31.797666)">
<stop offset="0" style="stop-color:rgb(0%,0%,0%);stop-opacity:0.313726;"/>
<stop offset="0.222222" style="stop-color:rgb(0%,0%,0%);stop-opacity:0.27451;"/>
<stop offset="1" style="stop-color:rgb(0%,0%,0%);stop-opacity:0;"/>
</radialGradient>
<radialGradient id="radial3" gradientUnits="userSpaceOnUse" cx="450.908936" cy="189.579361" fx="450.908936" fy="189.579361" r="21.166656" gradientTransform="matrix(0.0000000870852,0.0390662,-0.0703192,0.0000000507693,26.065323,-3.76374)">
<stop offset="0" style="stop-color:rgb(0%,0%,0%);stop-opacity:0.313726;"/>
<stop offset="0.222222" style="stop-color:rgb(0%,0%,0%);stop-opacity:0.27451;"/>
<stop offset="1" style="stop-color:rgb(0%,0%,0%);stop-opacity:0;"/>
</radialGradient>
<linearGradient id="linear1" gradientUnits="userSpaceOnUse" x1="169.333328" y1="233.5" x2="169.333328" y2="-168.666656" gradientTransform="matrix(0.031253,0,0,0.031253,0,6.719392)">
<stop offset="0" style="stop-color:rgb(25.882354%,64.705884%,96.078432%);stop-opacity:1;"/>
<stop offset="1" style="stop-color:rgb(39.215687%,70.980394%,96.470588%);stop-opacity:1;"/>
</linearGradient>
<linearGradient id="linear2" gradientUnits="userSpaceOnUse" x1="640" y1="1695.118164" x2="640" y2="175.118134" gradientTransform="matrix(0.00826902,0,0,0.00826902,0,0)">
<stop offset="0" style="stop-color:rgb(74.117649%,74.117649%,74.117649%);stop-opacity:1;"/>
<stop offset="1" style="stop-color:rgb(87.843138%,87.843138%,87.843138%);stop-opacity:1;"/>
</linearGradient>
<linearGradient id="linear3" gradientUnits="userSpaceOnUse" x1="381" y1="-9.916667" x2="381" y2="-147.5" gradientTransform="matrix(0.031253,0,0,0.031253,0,6.719392)">
<stop offset="0" style="stop-color:rgb(74.117649%,74.117649%,74.117649%);stop-opacity:1;"/>
<stop offset="1" style="stop-color:rgb(87.843138%,87.843138%,87.843138%);stop-opacity:1;"/>
</linearGradient>
</defs>
<g id="surface1">
<path style=" stroke:none;fill-rule:nonzero;fill:url(#linear0);" d="M 2.976562 13.96875 L 12.898438 13.96875 L 12.898438 14.703125 L 2.976562 14.703125 Z M 2.976562 13.96875 "/>
<path style=" stroke:none;fill-rule:nonzero;fill:url(#radial0);" d="M 12.898438 14.015625 L 14.222656 14.015625 L 14.222656 13.355469 L 12.898438 13.355469 Z M 12.898438 14.015625 "/>
<path style=" stroke:none;fill-rule:nonzero;fill:url(#radial1);" d="M 2.976562 14.015625 L 1.652344 14.015625 L 1.652344 14.679688 L 2.976562 14.679688 Z M 2.976562 14.015625 "/>
<path style=" stroke:none;fill-rule:nonzero;fill:url(#radial2);" d="M 2.976562 14.015625 L 1.652344 14.015625 L 1.652344 13.355469 L 2.976562 13.355469 Z M 2.976562 14.015625 "/>
<path style=" stroke:none;fill-rule:nonzero;fill:url(#radial3);" d="M 12.898438 14.015625 L 14.222656 14.015625 L 14.222656 14.679688 L 12.898438 14.679688 Z M 12.898438 14.015625 "/>
<path style=" stroke:none;fill-rule:nonzero;fill:url(#linear1);" d="M 2.316406 1.449219 L 13.5625 1.449219 C 13.925781 1.449219 14.222656 1.746094 14.222656 2.109375 L 14.222656 13.355469 C 14.222656 13.722656 13.925781 14.015625 13.5625 14.015625 L 2.316406 14.015625 C 1.949219 14.015625 1.652344 13.722656 1.652344 13.355469 L 1.652344 2.109375 C 1.652344 1.746094 1.949219 1.449219 2.316406 1.449219 Z M 2.316406 1.449219 "/>
<path style=" stroke:none;fill-rule:nonzero;fill:rgb(90.196079%,90.196079%,90.196079%);fill-opacity:0.392157;" d="M 2.316406 1.449219 C 1.949219 1.449219 1.652344 1.742188 1.652344 2.109375 L 1.652344 2.191406 C 1.652344 1.824219 1.949219 1.53125 2.316406 1.53125 L 13.5625 1.53125 C 13.925781 1.53125 14.222656 1.824219 14.222656 2.191406 L 14.222656 2.109375 C 14.222656 1.742188 13.925781 1.449219 13.5625 1.449219 Z M 2.316406 1.449219 "/>
<path style=" stroke:none;fill-rule:nonzero;fill:rgb(0%,0%,0%);fill-opacity:0.196078;" d="M 2.316406 14.015625 C 1.949219 14.015625 1.652344 13.722656 1.652344 13.355469 L 1.652344 13.273438 C 1.652344 13.640625 1.949219 13.933594 2.316406 13.933594 L 13.5625 13.933594 C 13.925781 13.933594 14.222656 13.640625 14.222656 13.273438 L 14.222656 13.355469 C 14.222656 13.722656 13.925781 14.015625 13.5625 14.015625 Z M 2.316406 14.015625 "/>
<path style="fill:none;stroke-width:3;stroke-linecap:round;stroke-linejoin:miter;stroke:rgb(12.941177%,12.941177%,12.941177%);stroke-opacity:1;stroke-miterlimit:4;" d="M 74.117922 -168.629428 L 433.958559 -168.629428 C 445.582449 -168.629428 455.081542 -159.130335 455.081542 -147.506445 L 455.081542 212.334192 C 455.081542 224.08307 445.582449 233.457174 433.958559 233.457174 L 74.117922 233.457174 C 62.369044 233.457174 52.869951 224.08307 52.869951 212.334192 L 52.869951 -147.506445 C 52.869951 -159.130335 62.369044 -168.629428 74.117922 -168.629428 Z M 74.117922 -168.629428 " transform="matrix(0.031253,0,0,0.031253,0,6.719392)"/>
<path style=" stroke:none;fill-rule:nonzero;fill:url(#linear2);" d="M 3.308594 7.070312 C 3.125 7.070312 2.976562 7.21875 2.976562 7.402344 L 2.976562 12.363281 C 2.976562 12.546875 3.125 12.695312 3.308594 12.695312 L 3.96875 12.695312 C 4.152344 12.695312 4.300781 12.546875 4.300781 12.363281 L 4.300781 10.378906 L 6.613281 10.378906 L 6.613281 12.363281 C 6.613281 12.546875 6.761719 12.695312 6.945312 12.695312 L 7.609375 12.695312 C 7.789062 12.695312 7.9375 12.546875 7.9375 12.363281 L 7.9375 7.402344 C 7.9375 7.21875 7.789062 7.070312 7.609375 7.070312 L 6.945312 7.070312 C 6.761719 7.070312 6.613281 7.21875 6.613281 7.402344 L 6.613281 9.386719 L 4.300781 9.386719 L 4.300781 7.402344 C 4.300781 7.21875 4.152344 7.070312 3.96875 7.070312 Z M 3.308594 7.070312 "/>
<path style=" stroke:none;fill-rule:nonzero;fill:rgb(100%,100%,100%);fill-opacity:1;" d="M 3.308594 7.070312 C 3.125 7.070312 2.976562 7.21875 2.976562 7.402344 L 2.976562 7.566406 C 2.976562 7.382812 3.125 7.238281 3.308594 7.238281 L 3.96875 7.238281 C 4.152344 7.238281 4.300781 7.382812 4.300781 7.566406 L 4.300781 7.402344 C 4.300781 7.21875 4.152344 7.070312 3.96875 7.070312 Z M 6.945312 7.070312 C 6.761719 7.070312 6.613281 7.21875 6.613281 7.402344 L 6.613281 7.566406 C 6.613281 7.382812 6.761719 7.238281 6.945312 7.238281 L 7.609375 7.238281 C 7.789062 7.238281 7.9375 7.382812 7.9375 7.566406 L 7.9375 7.402344 C 7.9375 7.21875 7.789062 7.070312 7.609375 7.070312 Z M 4.300781 9.386719 L 4.300781 9.550781 L 6.613281 9.550781 L 6.613281 9.386719 Z M 4.300781 9.386719 "/>
<path style=" stroke:none;fill-rule:nonzero;fill:rgb(0%,0%,0%);fill-opacity:0.235294;" d="M 4.300781 10.378906 L 4.300781 10.710938 L 6.613281 10.710938 L 6.613281 10.378906 Z M 2.976562 12.363281 L 2.976562 12.695312 C 2.976562 12.878906 3.125 13.023438 3.308594 13.023438 L 3.96875 13.023438 C 4.152344 13.023438 4.300781 12.878906 4.300781 12.695312 L 4.300781 12.363281 C 4.300781 12.546875 4.152344 12.695312 3.96875 12.695312 L 3.308594 12.695312 C 3.125 12.695312 2.976562 12.546875 2.976562 12.363281 Z M 6.613281 12.363281 L 6.613281 12.695312 C 6.613281 12.878906 6.761719 13.023438 6.945312 13.023438 L 7.609375 13.023438 C 7.789062 13.023438 7.9375 12.878906 7.9375 12.695312 L 7.9375 12.363281 C 7.9375 12.546875 7.789062 12.695312 7.609375 12.695312 L 6.945312 12.695312 C 6.761719 12.695312 6.613281 12.546875 6.613281 12.363281 Z M 6.613281 12.363281 "/>
<path style="fill:none;stroke-width:11.338583;stroke-linecap:round;stroke-linejoin:round;stroke:rgb(12.941177%,12.941177%,12.941177%);stroke-opacity:1;stroke-miterlimit:4;" d="M 400.119292 855.036503 C 377.916687 855.036503 359.965644 872.987546 359.965644 895.190151 L 359.965644 1495.132891 C 359.965644 1517.335496 377.916687 1535.286539 400.119292 1535.286539 L 479.954192 1535.286539 C 502.156797 1535.286539 520.10784 1517.335496 520.10784 1495.132891 L 520.10784 1255.155795 L 799.766188 1255.155795 L 799.766188 1495.132891 C 799.766188 1517.335496 817.71723 1535.286539 839.919836 1535.286539 L 920.227132 1535.286539 C 941.957341 1535.286539 959.908384 1517.335496 959.908384 1495.132891 L 959.908384 895.190151 C 959.908384 872.987546 941.957341 855.036503 920.227132 855.036503 L 839.919836 855.036503 C 817.71723 855.036503 799.766188 872.987546 799.766188 895.190151 L 799.766188 1135.167247 L 520.10784 1135.167247 L 520.10784 895.190151 C 520.10784 872.987546 502.156797 855.036503 479.954192 855.036503 Z M 400.119292 855.036503 " transform="matrix(0.00826902,0,0,0.00826902,0,0)"/>
<path style=" stroke:none;fill-rule:nonzero;fill:url(#linear3);" d="M 12.230469 2.394531 C 12.132812 2.398438 12.042969 2.4375 11.972656 2.507812 L 10.980469 3.5 C 10.882812 3.59375 10.84375 3.730469 10.878906 3.863281 C 10.914062 3.992188 11.015625 4.09375 11.148438 4.128906 C 11.277344 4.164062 11.417969 4.125 11.511719 4.027344 L 11.746094 3.792969 L 11.570312 5.371094 L 10.914062 5.371094 C 10.78125 5.371094 10.652344 5.441406 10.585938 5.558594 C 10.519531 5.675781 10.519531 5.820312 10.585938 5.9375 C 10.652344 6.054688 10.78125 6.125 10.914062 6.121094 L 12.898438 6.121094 C 13.105469 6.121094 13.269531 5.953125 13.269531 5.746094 C 13.269531 5.542969 13.105469 5.375 12.898438 5.371094 L 12.328125 5.371094 L 12.609375 2.8125 C 12.621094 2.707031 12.589844 2.597656 12.515625 2.519531 C 12.441406 2.4375 12.339844 2.394531 12.230469 2.394531 Z M 12.230469 2.394531 "/>
<path style=" stroke:none;fill-rule:nonzero;fill:rgb(100%,100%,100%);fill-opacity:1;" d="M 12.230469 2.394531 C 12.132812 2.398438 12.042969 2.4375 11.972656 2.507812 L 10.980469 3.5 C 10.890625 3.585938 10.851562 3.707031 10.875 3.828125 C 10.886719 3.753906 10.925781 3.679688 10.980469 3.625 L 11.972656 2.632812 C 12.042969 2.5625 12.132812 2.523438 12.230469 2.523438 C 12.417969 2.519531 12.578125 2.652344 12.609375 2.839844 L 12.609375 2.8125 C 12.621094 2.707031 12.589844 2.597656 12.515625 2.519531 C 12.441406 2.4375 12.339844 2.394531 12.230469 2.394531 Z M 11.746094 3.960938 L 11.726562 3.980469 L 11.570312 5.371094 L 10.914062 5.371094 C 10.804688 5.371094 10.699219 5.417969 10.625 5.503906 C 10.554688 5.589844 10.523438 5.699219 10.539062 5.8125 C 10.570312 5.628906 10.730469 5.496094 10.914062 5.5 L 11.570312 5.5 L 11.726562 4.109375 L 11.730469 4.101562 Z M 12.34375 5.371094 L 12.328125 5.542969 L 12.339844 5.542969 L 12.34375 5.5 L 12.898438 5.5 C 13.078125 5.503906 13.230469 5.632812 13.261719 5.808594 C 13.28125 5.703125 13.25 5.59375 13.183594 5.507812 C 13.113281 5.425781 13.007812 5.375 12.898438 5.371094 Z M 12.34375 5.371094 "/>
<path style=" stroke:none;fill-rule:nonzero;fill:rgb(0%,0%,0%);fill-opacity:0.235294;" d="M 12.601562 2.890625 L 12.328125 5.371094 L 12.351562 5.371094 L 12.609375 3.023438 C 12.617188 2.980469 12.613281 2.933594 12.601562 2.890625 Z M 11.746094 3.792969 L 11.511719 4.027344 C 11.417969 4.125 11.28125 4.164062 11.152344 4.128906 C 11.023438 4.097656 10.917969 4 10.882812 3.871094 C 10.835938 4.035156 10.90625 4.214844 11.054688 4.300781 C 11.203125 4.386719 11.390625 4.363281 11.511719 4.238281 L 11.722656 4.027344 Z M 10.550781 5.851562 C 10.515625 5.964844 10.539062 6.089844 10.609375 6.183594 C 10.683594 6.28125 10.796875 6.335938 10.914062 6.332031 L 12.898438 6.332031 C 13.015625 6.332031 13.125 6.273438 13.195312 6.179688 C 13.265625 6.085938 13.285156 5.964844 13.253906 5.851562 C 13.207031 6.011719 13.0625 6.121094 12.898438 6.121094 L 10.914062 6.121094 C 10.746094 6.125 10.597656 6.015625 10.550781 5.851562 Z M 10.550781 5.851562 "/>
<path style="fill:none;stroke-width:3;stroke-linecap:round;stroke-linejoin:round;stroke:rgb(12.941177%,12.941177%,12.941177%);stroke-opacity:1;stroke-miterlimit:4;" d="M 391.337629 -138.382317 C 388.212928 -138.257329 385.338202 -137.007448 383.088417 -134.757663 L 351.341449 -103.010694 C 348.216747 -100.010981 346.966866 -95.636399 348.091759 -91.386804 C 349.216651 -87.262198 352.466341 -84.012509 356.715935 -82.887616 C 360.840541 -81.762724 365.340112 -83.012604 368.339825 -86.137306 L 375.839109 -93.63659 L 370.214646 -43.141412 L 349.216651 -43.141412 C 344.967057 -43.141412 340.842451 -40.891627 338.717654 -37.141985 C 336.592857 -33.392343 336.592857 -28.767784 338.717654 -25.018142 C 340.842451 -21.2685 344.967057 -19.018715 349.216651 -19.143703 L 412.710588 -19.143703 C 419.334956 -19.143703 424.584454 -24.51819 424.584454 -31.142558 C 424.584454 -37.641937 419.334956 -43.016424 412.710588 -43.141412 L 394.462331 -43.141412 L 403.461471 -125.008594 C 403.836436 -128.383271 402.836531 -131.882937 400.461758 -134.382699 C 398.086985 -137.007448 394.837295 -138.382317 391.337629 -138.382317 Z M 391.337629 -138.382317 " transform="matrix(0.031253,0,0,0.031253,0,6.719392)"/>
</g>
</svg>
